X:1
T:Kenyered és borod
T: 
C:Unknown
Z:Public Domain
L:1/8
Q:1/4=120
M:4/4
K:C
V:1 treble nm="MusicXML Part"
%%MIDI program 0
V:1
"C" GGGG"G" GFED |"Am" C2 C2"C7" z4 |"F" A,CDE"Dm" FEDC |"G" D4"G7" AA G2 |"C" GGGG"E" ^G2 GG | %5
w: Ke- nye- red és bo- rod táp- lál|en- gem,|Te gyó- gyí- tod szí- vem, hogy- ha|fáj (hogy- ha fáj)|Ma- radj _ lem, úgy kér- lek|
"Am" A2 E2"C7" EDCD |"F" CCDE"G" DC"G7"A,C |"C" C4 z4 |] %8
w: Jé- zus, ma- radj ve- lem,|Ti- ed le- szek, ne- ked é- lek|már.-|

